X: 38509
T: Steevo's
R: jig
M: 6/8
K: Gmajor
|:DEG B3|BAB GAB|~c2A BdB|AGE DEG|
DEG B3|BAB GAB|cde deg|1 edB G2E:|2 edB G2e||
gfg efg|edB gdB|DGB dcB|cGE E2e|
gfg efg|edB gdB|DGB AdA|BGG G2e|
gfg efg|edB gdB|DGB dcB|cGE E2E|
DEG B3|BAB GAB|cde deg|edB G2E||

